X: 1
P: Bee's Wings
C: J.Hill
R: hornpipe
B: Hunter "The Fiddle Music of Scotland" p.335
B: One Thousand Fiddle Tunes (Cole's)
M: C
K: Bb
|: "F7"(3FGA \
|  "Bb"BfdB "F"AecA | "Bb"FdBF DBFD | "Eb"EGce "Bb"DFBd | "C7"(3cdc (3BAG "F7"F2 GA | "Bb"Bfdb "F"Afca |
| "Eb"EBGe "Bb"DBFd | "Eb"EGce "F"dcBA | "Bb"B2 d2 B2 :: "F7"fe | "Bb"dBfd bfdB | "F"cAfc afcA |
| "Eb"GEBG ecdB | "C7"(3cdc (3BAG "F7"F2 GA | "Bb"Bfdb "F" Afca | "Eb"EBGe "Bb"DBFd | "Eb"EGce "F"dcBA | "Bb"B2 d2 B2 :|
